X:75
T:Foolish boy - Radford
%%VWML:SBG-1-2-571-0
F:http://www.vwml.org/record/SBG/1/2/571
Z:Original Sibelius transcriptions by M. & S. Graebe
M:4/4
I:linebreak $
K:C
V:1 treble nm="P1"
V:1
 G2 C2 C2 E2 | DC E2 FF G2 | G2 C2 CC E2 | DC E2 FG G2 |$"^chorus" CC CC G2 CC | DD DD F2 DD | %6
 G A2 G FECC | C2 G,2 CC C2 | %8
T:Foolish boy - Mrs Bussell
F:http://www.vwml.org/record/SBG/1/2/571
Z:Original Sibelius transcriptions by M. & S. Graebe
M:4/4
I:linebreak $
K:Eb
V:1 treble nm="P1"
V:1
 B, | E2 e2 B2 cB | AG (FG) E2 E2 | F2 F F Fc BA | AG FE ED CB, |$ E2 E2 E B, B,2 | E2 e e B G G2 | %7
w: |* * * & I|cd. not tell _ how He|left me 6 horses _ to _|foll- ow the _ plough _ with a|||
 c A F2 B G E2 | F2 E3/2 D/ E2 z x | %9
w: ||
T:Foolish boy - Miss L Crane
F:http://www.vwml.org/record/SBG/1/2/571
Z:Original Sibelius transcriptions by M. & S. Graebe
M:2/4
I:linebreak $
K:E
V:1 treble nm="P1"
V:1
 E2 | E E e2 B2 B G | FG F E D2 B,2 | E2 E E F2 F F | G2 F E D2 C B, |$ E2 E2 E D D2 | %6
 E2 e2 e B B2 | c B A2 G A B2 | C2 F D E2 x2 | %9

